X: 1
T: Katie's Fancy
M: 6/8
L: 1/8
R: jig
K: Gmaj
DEF G2 A | Bgf efg | dBG FGA | BAB cAF |
DEF G2 A | Bgf efg | dBG FGA |1 BGG GFE :|2 BGG GBd ||
gfe agf | gfe dBG | gfe dcB | AGA BGE |
DEF G2 A | Bgf efg | dBG FGA | BGG GBd :|
d2 g gfg  | eag fed | bgb afa  | gfe d2 =f |
ece gfe | ded GBd | cAG FGA|1 BGG GBc :|2 BGG GFE ||
